app/img/info/main-bg.svg

<svg width="745" height="758" viewBox="0 0 745 758" fill="none" xmlns="http://www.w3.org/2000/svg">
<rect x="1.5" y="80.5" width="742" height="676" rx="51.5" stroke="#3CD993" stroke-width="3"/>
<circle cx="371" cy="80" r="78.5" fill="#25B072" stroke="#3CD993" stroke-width="3"/>
<path fill-rule="evenodd" clip-rule="evenodd" d="M397.417 81.0493C393.473 82.4469 389.019 81.4433 386.064 78.4881L381.595 74.024L384.065 71.5538H385.104C389.949 71.5538 394.472 69.2047 397.292 65.4024L405.914 74.0257L401.451 78.4881C400.298 79.6432 398.937 80.5054 397.417 81.0493ZM389.674 97.9928C388.045 97.9928 386.476 97.6408 385.014 96.9454C381.234 95.1503 378.789 91.2891 378.789 87.108V80.7967H382.291L383.024 81.5275C385.91 84.4154 389.823 85.968 393.799 85.968C394.528 85.968 395.259 85.904 395.985 85.7979V97.9928H389.674ZM367.559 103.45C366.407 102.299 365.55 100.943 365.011 99.4174C363.605 95.4787 364.606 91.0231 367.559 88.0628L372.021 83.6004L374.493 86.0707V87.108C374.493 91.9425 376.839 96.4638 380.643 99.2978L372.023 107.918L367.559 103.45ZM348.054 91.6781C348.054 90.0464 348.408 88.4821 349.11 87.0171C350.897 83.2384 354.755 80.7967 358.936 80.7967H365.249V84.2908L364.516 85.0233C361.1 88.4484 359.564 93.3048 360.253 97.9928H348.054V91.6781ZM342.597 69.5634C343.756 68.4031 345.111 67.5443 346.627 67.0089C350.572 65.6045 355.029 66.6081 357.985 69.565L362.447 74.0257L359.977 76.4977H358.938C354.1 76.4977 349.58 78.8434 346.753 82.6439L338.135 74.0257L342.597 69.5634ZM354.372 50.0603C356.003 50.0603 357.57 50.4123 359.032 51.1061C362.809 52.9011 365.249 56.7623 365.249 60.9434V67.2547H361.753L361.024 66.5239C357.604 63.1056 352.748 61.5665 348.054 62.2535V50.0603H354.372ZM372.02 40.1321L376.489 44.5995C377.649 45.7597 378.508 47.1152 379.043 48.6307C380.446 52.5711 379.443 57.0301 376.489 59.9887L372.022 64.4527L369.548 61.9808V60.9435C369.548 56.109 367.206 51.5894 363.403 48.7537L372.02 40.1321ZM374.494 76.4978V79.9919L372.022 77.5199L369.55 79.9919V76.4978H366.056L368.528 74.0258L366.056 71.5538H369.55V68.058L372.022 70.53L374.494 68.0597V71.5538H377.988L375.516 74.0275L377.99 76.4978H374.494ZM395.985 56.3733C395.985 58 395.631 59.5626 394.929 61.0293C393.149 64.8114 389.293 67.2547 385.103 67.2547H378.789V63.7674L379.531 63.0281C382.945 59.6064 384.482 54.7483 383.798 50.0603H395.985V56.3733ZM411.993 74.0257L399.409 61.4385C399.989 59.822 400.285 58.1229 400.285 56.3733V45.7613H382.503C381.767 44.2122 380.772 42.8044 379.531 41.5617L372.021 34.0515L359.445 46.6336C357.822 46.056 356.124 45.7613 354.373 45.7613H343.756V63.5518C342.207 64.2877 340.798 65.2812 339.558 66.5239L332.055 74.0257L344.632 86.6028C344.053 88.2244 343.756 89.9252 343.756 91.6781V102.29H361.553C362.289 103.843 363.281 105.252 364.517 106.488L372.021 114L384.603 101.418C386.226 101.995 387.923 102.29 389.675 102.29H400.285V84.503C401.843 83.7604 403.254 82.7669 404.491 81.5275L411.993 74.0257Z" fill="#3CD993"/>
</svg>

<svg width="745" height="758" fill="none" xmlns="http://www.w3.org/2000/svg"><rect x="1.5" y="80.5" width="742" height="676" rx="51.5" stroke="#3CD993" stroke-width="3"/><circle cx="371" cy="80" r="78.5" fill="#25B072" stroke="#3CD993" stroke-width="3"/><path fill-rule="evenodd" clip-rule="evenodd" d="M397.417 81.05c-3.944 1.397-8.398.393-11.353-2.562l-4.469-4.464 2.47-2.47h1.039c4.845 0 9.368-2.35 12.188-6.152l8.622 8.624-4.463 4.462a10.813 10.813 0 0 1-4.034 2.561Zm-7.743 16.943c-1.629 0-3.198-.352-4.66-1.048-3.78-1.795-6.225-5.656-6.225-9.837v-6.311h3.502l.733.73c2.886 2.888 6.799 4.441 10.775 4.441.729 0 1.46-.064 2.186-.17v12.195h-6.311Zm-22.115 5.457a10.694 10.694 0 0 1-2.548-4.033 10.942 10.942 0 0 1 2.548-11.354l4.462-4.463 2.472 2.47v1.038c0 4.834 2.346 9.356 6.15 12.19l-8.62 8.62-4.464-4.468Zm-19.505-11.772c0-1.632.354-3.196 1.056-4.66a10.917 10.917 0 0 1 9.826-6.221h6.313v3.494l-.733.732c-3.416 3.425-4.952 8.282-4.263 12.97h-12.199v-6.315Zm-5.457-22.115a10.69 10.69 0 0 1 4.03-2.554c3.945-1.404 8.402-.4 11.358 2.556l4.462 4.46-2.47 2.473h-1.039c-4.838 0-9.358 2.345-12.185 6.146l-8.618-8.618 4.462-4.463Zm11.775-19.503c1.631 0 3.198.352 4.66 1.046a10.942 10.942 0 0 1 6.217 9.837v6.312h-3.496l-.729-.731c-3.42-3.418-8.276-4.958-12.97-4.27V50.06h6.318Zm17.648-9.928 4.469 4.468a10.705 10.705 0 0 1 2.554 4.03c1.403 3.941.4 8.4-2.554 11.359l-4.467 4.464-2.474-2.472v-1.038c0-4.834-2.342-9.354-6.145-12.19l8.617-8.62Zm2.474 36.366v3.494l-2.472-2.472-2.472 2.472v-3.494h-3.494l2.472-2.472-2.472-2.472h3.494v-3.496l2.472 2.472 2.472-2.47v3.494h3.494l-2.472 2.474 2.474 2.47h-3.496Zm21.491-20.125c0 1.627-.354 3.19-1.056 4.656-1.78 3.782-5.636 6.226-9.826 6.226h-6.314v-3.488l.742-.739c3.414-3.422 4.951-8.28 4.267-12.968h12.187v6.313Zm16.008 17.653-12.584-12.587c.58-1.617.876-3.316.876-5.066V45.761h-17.782a15.084 15.084 0 0 0-2.972-4.2l-7.51-7.51-12.576 12.583a15.05 15.05 0 0 0-5.072-.873h-10.617v17.79a15.003 15.003 0 0 0-4.198 2.973l-7.503 7.502 12.577 12.577a15.024 15.024 0 0 0-.876 5.075v10.612h17.797a14.998 14.998 0 0 0 2.964 4.198l7.504 7.512 12.582-12.582c1.623.577 3.32.872 5.072.872h10.61V84.503a15.083 15.083 0 0 0 4.206-2.975l7.502-7.502Z" fill="#3CD993"/></svg>
